icons/mobile/24/svg/pin-fill-24.svg

<svg width="24" height="24" viewBox="0 0 24 24" fill="none" xmlns="http://www.w3.org/2000/svg">
<path d="M10.9367 3.16216C11.3302 2.88207 11.876 2.97396 12.1564 3.36724C12.4369 3.76076 12.3458 4.30748 11.9523 4.58795C11.6877 4.77651 11.4314 4.96678 11.1818 5.15631L14.2287 8.19927L17.5568 8.49127C18.5358 8.57727 19.3988 9.20119 19.8088 10.1202C20.1958 10.9862 20.1056 11.9325 19.5676 12.6485C18.6356 13.8914 17.7387 14.8749 17.1457 15.5069L16.9552 15.6963L21.7453 20.5079C22.0858 20.8502 22.0853 21.4043 21.7433 21.7452C21.401 22.086 20.847 22.0843 20.506 21.7422L15.716 16.9317L15.5226 17.1251C14.4728 18.1039 13.4984 18.9308 12.6105 19.5948C12.1995 19.9018 11.7112 20.0586 11.2062 20.0586C10.8522 20.0586 10.4878 19.9822 10.1388 19.8262C9.21195 19.4112 8.58228 18.5397 8.49529 17.5528L8.20427 14.2247L5.15642 11.1797C4.95727 11.4418 4.7674 11.6994 4.58709 11.9522C4.30644 12.3454 3.76069 12.4367 3.36736 12.1563C2.97396 11.8757 2.88261 11.329 3.16326 10.9356C4.09845 9.62473 5.2693 8.18209 6.72576 6.72564C7.86069 5.59071 9.25345 4.3617 10.9367 3.16216Z" fill="black"/>
</svg>

<!-- This Source Code Form is subject to the terms of the Mozilla Public
   - License, v. 2.0. If a copy of the MPL was not distributed with this
   - file, You can obtain one at http://mozilla.org/MPL/2.0/. -->
<svg xmlns="http://www.w3.org/2000/svg" width="24" height="24" fill="none" viewBox="0 0 24 24">
    <path fill="#000" d="M10.937 3.162a.875.875 0 0 1 1.015 1.426q-.395.284-.77.568L14.229 8.2l3.328.292c.979.086 1.842.71 2.252 1.63.387.865.297 1.811-.241 2.528a34 34 0 0 1-2.422 2.858l-.19.19 4.79 4.81a.876.876 0 0 1-1.24 1.235l-4.79-4.81-.193.193a36 36 0 0 1-2.912 2.47c-.412.307-.9.464-1.405.464a2.773 2.773 0 0 1-2.71-2.506l-.292-3.328-3.048-3.045q-.299.393-.569.772a.875.875 0 1 1-1.424-1.016 33.3 33.3 0 0 1 7.774-7.774" />
</svg>
